svg/Pictogram/pictograms-nps-misc-point_of_interest.svg

<svg xmlns="http://www.w3.org/2000/svg" viewBox="0 0 256 256"><path d="m0 0c-.54 0-.979-.44-.979-.981v-7.522c0-.54.439-.979.979-.979h7.521c.542 0 .982.439.982.979v7.522c0 .541-.44.981-.982.981h-7.521" fill="#fff" transform="matrix(25.90307 0 0-25.90307 30.553 5.191)"/><path d="m0 0c.652 0 1.182.527 1.182 1.18v7.521c0 .653-.53 1.182-1.182 1.182h-7.521c-.653 0-1.18-.529-1.18-1.182v-7.521c0-.653.527-1.18 1.18-1.18h7.521" transform="matrix(25.90307 0 0-25.90307 225.38 256)"/><g fill="#fff"><path d="m0 0c-.143.141-.143.371 0 .512.141.142.371.142.512 0l.724-.723v1.024c0 .199.162.363.364.363.199 0 .363-.164.363-.363v-1.024l.723.723c.142.142.371.142.513 0 .143-.141.143-.371 0-.512l-.722-.723 1.023-.002c.199 0 .361-.162.361-.363 0-.199-.162-.363-.361-.363h-1.023l.722-.723c.143-.142.143-.371 0-.514-.142-.14-.371-.14-.513 0l-.721.723-.002-1.021c0-.202-.164-.364-.363-.364-.202 0-.364.162-.364.364v1.023l-.724-.725c-.141-.14-.371-.14-.512 0-.143.143-.143.372 0 .514l.723.723h-1.024c-.199 0-.363.164-.363.363 0 .201.164.363.363.363h1.024l-.723.725" transform="matrix(25.90307 0 0-25.90307 131.48 144.7)"/><path d="m0 0c0 .199-.162.361-.363.361-.201 0-.364-.162-.364-.361v-1.502l-2.123 2.121c-.14.143-.371.143-.511 0-.143-.14-.143-.371 0-.512l2.121-2.123h-1.502c-.199 0-.362-.162-.362-.363 0-.199.163-.363.362-.363l2.377.002c.094 0 .185.035.258.105.07.071.105.164.105.256l.002 2.379" transform="matrix(25.90307 0 0-25.90307 120.96 49.89)"/></g></svg>

<?xml version="1.0" encoding="UTF-8" standalone="no"?>
<!-- Created with Inkscape (http://www.inkscape.org/) -->
<svg
   xmlns:dc="http://purl.org/dc/elements/1.1/"
   xmlns:cc="http://creativecommons.org/ns#"
   xmlns:rdf="http://www.w3.org/1999/02/22-rdf-syntax-ns#"
   xmlns:svg="http://www.w3.org/2000/svg"
   xmlns="http://www.w3.org/2000/svg"
   xmlns:sodipodi="http://sodipodi.sourceforge.net/DTD/sodipodi-0.dtd"
   xmlns:inkscape="http://www.inkscape.org/namespaces/inkscape"
   width="256"
   height="256"
   id="svg5294"
   sodipodi:version="0.32"
   inkscape:version="0.46"
   version="1.0"
   sodipodi:docname="pictograms-nps-misc-point_of_interest-2.svg"
   inkscape:output_extension="org.inkscape.output.svg.inkscape">
  <defs
     id="defs5296">
    <inkscape:perspective
       sodipodi:type="inkscape:persp3d"
       inkscape:vp_x="0 : 526.18109 : 1"
       inkscape:vp_y="0 : 1000 : 0"
       inkscape:vp_z="744.09448 : 526.18109 : 1"
       inkscape:persp3d-origin="372.04724 : 350.78739 : 1"
       id="perspective5302" />
  </defs>
  <sodipodi:namedview
     id="base"
     pagecolor="#ffffff"
     bordercolor="#666666"
     borderopacity="1.0"
     gridtolerance="10000"
     guidetolerance="10"
     objecttolerance="10"
     inkscape:pageopacity="0.0"
     inkscape:pageshadow="2"
     inkscape:zoom="0.98994949"
     inkscape:cx="112.80911"
     inkscape:cy="62.857143"
     inkscape:document-units="px"
     inkscape:current-layer="layer1"
     showgrid="false"
     inkscape:window-width="725"
     inkscape:window-height="674"
     inkscape:window-x="1"
     inkscape:window-y="309" />
  <metadata
     id="metadata5299">
    <rdf:RDF>
      <cc:Work
         rdf:about="">
        <dc:format>image/svg+xml</dc:format>
        <dc:type
           rdf:resource="http://purl.org/dc/dcmitype/StillImage" />
      </cc:Work>
    </rdf:RDF>
  </metadata>
  <g
     inkscape:label="Layer 1"
     inkscape:groupmode="layer"
     id="layer1">
    <g
       id="g4712"
       transform="matrix(25.903066,0,0,-25.903066,30.55277,5.1909744)">
      <path
         d="M 0,0 C -0.54,0 -0.979,-0.44 -0.979,-0.981 L -0.979,-8.503 C -0.979,-9.043 -0.54,-9.482 0,-9.482 L 7.521,-9.482 C 8.063,-9.482 8.503,-9.043 8.503,-8.503 L 8.503,-0.981 C 8.503,-0.44 8.063,0 7.521,0 L 0,0 z"
         style="fill:#ffffff;fill-opacity:1;fill-rule:nonzero;stroke:none"
         id="path4714" />
    </g>
    <g
       id="g4716"
       transform="matrix(25.903066,0,0,-25.903066,225.38258,256)">
      <path
         d="M 0,0 C 0.652,0 1.182,0.527 1.182,1.18 L 1.182,8.701 C 1.182,9.354 0.652,9.883 0,9.883 L -7.521,9.883 C -8.174,9.883 -8.701,9.354 -8.701,8.701 L -8.701,1.18 C -8.701,0.527 -8.174,0 -7.521,0 L 0,0 z"
         style="fill:#000000;fill-opacity:1;fill-rule:nonzero;stroke:none"
         id="path4718" />
    </g>
    <g
       id="g4720"
       transform="matrix(25.903066,0,0,-25.903066,131.48396,144.69701)">
      <path
         d="M 0,0 C -0.143,0.141 -0.143,0.371 0,0.512 C 0.141,0.654 0.371,0.654 0.512,0.512 L 1.236,-0.211 L 1.236,0.813 C 1.236,1.012 1.398,1.176 1.6,1.176 C 1.799,1.176 1.963,1.012 1.963,0.813 L 1.963,-0.211 L 2.686,0.512 C 2.828,0.654 3.057,0.654 3.199,0.512 C 3.342,0.371 3.342,0.141 3.199,0 L 2.477,-0.723 L 3.5,-0.725 C 3.699,-0.725 3.861,-0.887 3.861,-1.088 C 3.861,-1.287 3.699,-1.451 3.5,-1.451 L 2.477,-1.451 L 3.199,-2.174 C 3.342,-2.316 3.342,-2.545 3.199,-2.688 C 3.057,-2.828 2.828,-2.828 2.686,-2.688 L 1.965,-1.965 L 1.963,-2.986 C 1.963,-3.188 1.799,-3.35 1.6,-3.35 C 1.398,-3.35 1.236,-3.188 1.236,-2.986 L 1.236,-1.963 L 0.512,-2.688 C 0.371,-2.828 0.141,-2.828 0,-2.688 C -0.143,-2.545 -0.143,-2.316 0,-2.174 L 0.723,-1.451 L -0.301,-1.451 C -0.5,-1.451 -0.664,-1.287 -0.664,-1.088 C -0.664,-0.887 -0.5,-0.725 -0.301,-0.725 L 0.723,-0.725 L 0,0 z"
         style="fill:#ffffff;fill-opacity:1;fill-rule:nonzero;stroke:none"
         id="path4722" />
    </g>
    <g
       id="g4724"
       transform="matrix(25.903066,0,0,-25.903066,120.96193,49.889512)">
      <path
         d="M 0,0 C 0,0.199 -0.162,0.361 -0.363,0.361 C -0.564,0.361 -0.727,0.199 -0.727,0 L -0.727,-1.502 L -2.85,0.619 C -2.99,0.762 -3.221,0.762 -3.361,0.619 C -3.504,0.479 -3.504,0.248 -3.361,0.107 L -1.24,-2.016 L -2.742,-2.016 C -2.941,-2.016 -3.104,-2.178 -3.104,-2.379 C -3.104,-2.578 -2.941,-2.742 -2.742,-2.742 L -0.365,-2.74 C -0.271,-2.74 -0.18,-2.705 -0.107,-2.635 C -0.037,-2.564 -0.002,-2.471 -0.002,-2.379 L 0,0 z"
         style="fill:#ffffff;fill-opacity:1;fill-rule:nonzero;stroke:none"
         id="path4726" />
    </g>
  </g>
</svg>
